!!!!SEGMENT: pl-cz--iii-50--015_brykner-jerzy--vesperae-de-profundis.krn
!!!cenid: 17xx:857
!!!COM: Brykner, Jerzy
!!!COM-rismID:
!!!CDT: 1705-1760
!!!CNT: Polish
!!!OPR: Vesperae
!!!OTL: De profundis
!!!OMV: 015
!!!PDT:
!!!AGN: Sacred; Vespers
!!!SMS-siglum: PL-CZ
!!!SMS-shelfmark: III-50
!!!SMS-shelfwork: 001-015 M
!!!SMS-variant:
!!!SMS-altvar:
!!!NIFC-rismSourceID: 300033583
!!!NIFC-islandoraID: pl-cz:38729
!!!URL-pdf-islandora: https://repozytorium.nifc.pl/islandora/object/pl-cz%3A38729/datastream/PDF/view
!!!URL-scan:
!!!ONB-nifc: UWAGA: części Vesperae: Dixit Dominus, Confitebor, Beatus vir, Laudate pueri, Laudate Dominum, In exitu, Laetatus sum, Nisi Dominus, Lauda Jerusalem, Credidi, In convertendo, Domine probasti me, Memento Domine David, Confitebor, De profundis, Beati omnes, Magnificat
!!!AIN: 1 bass 1 organ 2 violn 1 vox
!!!key:
**kern	**fba	**kern	**kern	**kern	**text	**kern	**text
*part5	*part5	*part4	*part3	*part2	*part2	*part1	*part1
*staff5	*	*staff4	*staff3	*staff2	*staff2	*staff1	*staff1
*Iorgan	*	*Ivioln	*Ivioln	*Ibass	*	*Ivox	*
*I"Organo	*	*I"Violino ʃecundo	*I"Violino Primo	*I"Basso	*	*I"Canto	*
*I'org	*	*I'vl 2	*I'vl 1	*I'B	*	*I'S	*
*group3	*	*group2	*group2	*group1	*	*group1	*
*clefF4	*	*clefG2	*clefG2	*clefF4	*	*clefC1	*
*k[b-e-a-]	*	*k[b-e-a-]	*k[b-e-a-]	*k[b-e-a-]	*	*k[b-e-a-]	*
*c:	*	*c:	*c:	*c:	*	*c:	*
*M4/4	*	*M4/4	*M4/4	*M4/4	*	*M4/4	*
*met(c)	*	*met(c)	*met(c)	*met(c)	*	*met(c)	*
=1	=1	=1	=1	=1	=1	=1	=1
*2\right	*	*2\right	*	*2\right	*	*2\right	*
!LO:TX:a:t=ʃolo.	!	!	!LO:TX:b:i:t=De profundis.	!LO:TX:b:i:t=De profundis.	!	!	!
!LO:TX:a:t=P:problem=kolejność znaków es as b	!	!	!	!LO:TX:a:t=4.	!	!	!
2C/	.	2e-/	2g/	00r	.	4.g/	De
.	.	.	.	.	.	8c/	pro-
4.D/	6|	[2d/	[2f/	.	.	16c/LL	-fun-
.	.	.	.	.	.	16Bn/JJ	.
.	.	.	.	.	.	4B/	-dis
8C/	.	.	.	.	.	8c/	cla-
=2	=2	=2	=2	=2	=2	=2	=2
2BBn/	7	2d/]	2f/]	.	.	8a-\	-ma-
.	6	.	.	.	.	8a-\	-vi
.	5	.	.	.	.	8a-\	ad
.	.	.	.	.	.	16g/LL	te
.	.	.	.	.	.	16f/JJ	.
[2C/	.	2c/	2e-/	.	.	16e-/	Do-
.	.	.	.	.	.	16d/	-mi-
.	.	.	.	.	.	8c/	-ne,
.	.	.	.	.	.	8.cc\	Do-
.	.	.	.	.	.	16g\	-mi-
=3	=3	=3	=3	=3	=3	=3	=3
2C/]	.	2e-/	2g/	.	.	4g\	-ne
.	.	.	.	.	.	8r	.
.	.	.	.	.	.	8cc\	ex-
2F\	5	[2f/	[2a-/	.	.	8a-\	-au-
.	6	.	.	.	.	8f\	-di
.	.	.	.	.	.	8d/	vo-
.	.	.	.	.	.	8dd\	-cem
=4	=4	=4	=4	=4	=4	=4	=4
*	*	*	*	*	*	*custos:cc	*
2G\	6 4n	4f/]	2a-/]	.	.	4bn\	me-
!	!	!	!	!	!	!LO:LB:g=original	!
.	.	4e-/	.	.	.	4.cc\	.
2GG/	5 4	2d/	2g/	.	.	.	.
.	x n	.	.	.	.	16bn\LL	.
.	.	.	.	.	.	16a-\JJ	.
.	.	.	.	.	.	4b\	.
=5	=5	=5	=5	=5	=5	=5	=5
!	!	!LO:TX:a:t=P:problem=mixed beam	!LO:TX:a:t=P:problem=mixed beam	!	!	!	!
8C/	.	8c/L	8g/L	8r	.	8cc,\	-am
!LO:TX:a:t=T&colon;	!	!LO:TX:a:t=P:problem=8\right	!	!	!	!	!
4c\	.	8ee-\	8gg\	4c\	Fi-	4ee-\	fi-
.	.	8ee-\	8gg\	.	.	.	.
8c\	.	8ee-\J	8gg\J	8c\	-ant	8ee-\	-ant
!LO:TX:a:t=P:problem=mixed beam	!	!	!	!	!	!	!
8c\L	.	8ee-\L	16gg\LL	8c\	au-	16ee-\LL	au-
.	.	.	16cc\J	.	.	16dd\JJ	.
8C/J	.	8ee-\	8cc\J	8C/	-res	8cc\	-res
8En\L	7-	8gg\	8bb-\L	8En\	tu-	8dd-X\	tu-
8E\J	6	8gg\J	16aa-\L	8E\	-a	16cc\LL	-a
.	5	.	16gg\JJ	.	.	16b-\JJ	.
=6	=6	=6	=6	=6	=6	=6	=6
!	!	!LO:TX:a:t=P:4\right:problem	!	!	!	!	!
4F\	.	4cc\	4aa-\	4F\	in-	4a-\	in-
4G\	n	4bn/	4gg\	4G\	-ten-	4g\	-ten-
2A-\	7	2cc\	4gg\	2A-\	-de(n)-	2cc\	-den-
.	6	.	4ff\	.	.	.	.
*custos:G	*	*	*	*	*	*	*
!LO:LB:g=original	!	!	!LO:LB:g=original	!	!	!	!
=7	=7	=7	=7	=7	=7	=7	=7
8G\L	n	8dd\L	8gg\L	8G\	-tes	8bn\	-tes
!	!	!	!	!	!	!LO:N:vis=16	!
8G\	_	8dd\	8gg\	8G\	in	8b\	in
8F\	.	8dd\	8gg\	8F\	vo-	8b\	vo-
*	*	*custos:cc	*	*	*	*	*
8F\J	.	8dd\J	8gg\J	8F\	-ce(m)	8b\	-cem
!	!	!LO:LB:g=original	!	!	!	!	!
4.E-\	6	8cc\L	4.gg\	4.E-\	de-	8cc\	de-
.	.	8g\J	.	.	.	8g\	-pre-
.	.	4cc\	.	.	.	[4cc\	-ca-
16D\LL	.	.	16ff#X\LL	16D/LL	-pre-	.	.
16C\JJ	.	.	16ee-\JJ	16C/JJ	.	.	.
=8	=8	=8	=8	=8	=8	=8	=8
!	!	!LO:N:vis=16	!	!	!	!	!
4D\	7 #	8b-/L	8.ff#Xt\L	8D\	-ca-	8cc\]	.
!	!	!LO:N:vis=16	!	!	!	!	!
.	.	8an/J	.	8D\	-ti-	16b-\LL	-ti-
.	.	.	(32ee-\LL	.	.	16a-\JJ	.
.	.	.	32ff#\JJJ)	.	.	.	.
!LO:TX:a:t=P:problem=mixed beam	!	!	!	!	!	!	!
8G\L	.	8b-\L	8.ggt\L	8G\	-o-	8b-\	-o-
8C/J	.	8cc\J	.	8C/	-nis	8cc\	-nis
.	.	.	(32ff#X\LL	.	.	.	.
.	.	.	32ee-\JJJ)	.	.	.	.
2D\	6 4	4b-/	4gg\	2D/	me-	(4b-\	me-
.	5 #	4an/	4ff#X\	.	.	4an\)	.
!	!	!	!	!	!	!LO:LB:g=original	!
=9	=9	=9	=9	=9	=9	=9	=9
4GG/	.	4g/	4gg\	8GG/	-a,	4g\	-ae.
.	.	.	.	16G\	ʃi	.	.
.	.	.	.	16An\	i-	.	.
!LO:TX:a:t=ʃ&colon;	!	!	!	!	!	!	!
4G\	.	4r	4r	8B-\	-ni-	4r	.
.	.	.	.	16A\LL	-qui-	.	.
.	.	.	.	16G\JJ	.	.	.
4F\	6 -	8r	8r	8d\	-ta-	2r	.
.	.	8an/	8ff\	8A-\	-tes	.	.
!	!	!LO:TX:a:t=P:problem=16\right	!	!LO:LB:g=original	!	!	!
8E-\L	.	16b-\LL	16gg\LL	8G\	o-	.	.
.	.	16cc\	16aan\	.	.	.	.
8D\J	.	16dd\	16bb-\	8F\	-bser-	.	.
.	.	16ee-\JJ	16bb-\JJ	.	.	.	.
=10	=10	=10	=10	=10	=10	=10	=10
!	!	!	!	!	!	!LO:TX:a:t=2.	!
8C/L	7	8cc\L	4bb-\	8E-\	-va-	0r	.
8D/	.	8dd\J	.	16F\	-ve-	.	.
.	.	.	.	16G\	-ris	.	.
8C/	6|	4ee-\	4aa-\	8.E-\	D(o-	.	.
8FF/J	.	.	.	.	.	.	.
.	.	.	.	16D\	-mi-	.	.
4BB-/	.	4ff\	4bb-\	8D\	-n)e	.	.
*	*	*	*	*	*ij	*	*
.	.	.	.	4B-\	D(o-	.	.
4D/	6	4r	4r	.	.	.	.
.	.	.	.	16A-\	-mi-	.	.
.	.	.	.	16B-\	-n)e	.	.
*	*	*	*	*	*Xij	*	*
=11	=11	=11	=11	=11	=11	=11	=11
4E-\	.	8g/L	8ee-\L	4G\	quis	.	.
.	.	16f/L	16dd\L	.	.	.	.
.	.	16g/JJ	16ee-\JJ	.	.	.	.
!	!	!LO:TX:a:t=P:problem=mixed beam	!	!	!	!	!
4A-\	.	8e-/L	8cc\L	8r	.	.	.
*	*	*	*	*	*ij	*	*
.	.	8cc\J	[8ff\J	8c\	quis	.	.
*	*	*	*	*	*Xij	*	*
!	!	!	!LO:LB:g=original	!	!	!	!
8B-\L	.	8b-/L	8ff\L]	8D\	suʃ-	.	.
8E-\J	.	8g/J	8ee-\	8E-\	-ti-	.	.
4BB-/	.	4f/	8ee-\	4BB-/	-ne-	.	.
.	.	.	8dd\J	.	.	.	.
!	!	!LO:LB:g=original	!	!	!	!	!
=12	=12	=12	=12	=12	=12	=12	=12
4E-\	.	4g/	4ee-\	4E-\	-bit.	8r	.
.	.	.	.	.	.	4g\	Qui-
4C/	5	4r	4r	4r	.	.	.
.	6|	.	.	.	.	8a-\	-a
4.BB-/	-	2r	2r	2r	.	8b-\	a-
.	.	.	.	.	.	8f/	-pud
.	.	.	.	.	.	8dd-X\	te
8E-\	6	.	.	.	.	16cc\LL	pro-
.	.	.	.	.	.	16b-\JJ	.
*custos:F	*	*	*	*	*	*	*
!LO:LB:g=original	!	!	!	!	!	!	!
=13	=13	=13	=13	=13	=13	=13	=13
!	!	!	!	!LO:TX:a:t=1	!	!	!
8F\L	-	0r	0r	1r	.	8a-\	-pi-
8D-X\J	.	.	.	.	.	16g/LL	-ti-
.	.	.	.	.	.	16f/JJ	.
8BB-/L	6 5	.	.	.	.	8g\	-a-
8C/J	n	.	.	.	.	16f/	-ti-
.	5	.	.	.	.	16en/	-o
4.F\	6-	.	.	.	.	8f/	est,
.	.	.	.	.	.	8cc\	et
.	.	.	.	.	.	8dd-X\	pro-
8G\	.	.	.	.	.	8dd-\	-pter
=14	=14	=14	=14	=14-zz	=14	=14	=14
!	!	!	!	!	!	!LO:SIC:s=16dd-:v	!
4A-\	4	.	.	2r	.	16dd\LL	le-
.	3	.	.	.	.	16cc\JJ	.
.	9	.	.	.	.	8cc\	-gem
4B-\	8	.	.	.	.	8cc\	tu-
.	.	.	.	.	.	16b-\	-am
.	.	.	.	.	.	16cc\	su-
!	!	!	!	!	!	!LO:LB:g=original	!
4c\	n	.	.	4r	.	8.en/	-sti-
.	.	.	.	.	.	16e/	-nu-
8d-X\L	.	.	.	8r	.	8f/	-i
8B-\J	.	.	.	8F\	Su-	8dd-X\	te
=15	=15	=15	=15-zz	=15	=15	=15	=15
4c\	4	1r	1r	8.F\	-sti-	4a-\	Do-
.	.	.	.	16F\	-nu-	.	.
4C/	n	.	.	4En\	-it	8.g\	.
.	.	.	.	.	.	16g\	-mi-
4F\	.	.	.	8F\	a-	4f/	-ne.
.	.	.	.	16G\	-ni-	.	.
.	.	.	.	16F\	-ma	.	.
*	*	*	*	*custos:G	*	*	*
8E-\L	.	.	.	8G\	me-	4r	.
!	!	!	!	!LO:LB:g=original	!	!	!
8D-X\J	.	.	.	16A-\	-a	.	.
.	.	.	.	16G\	in	.	.
=16	=16	=16	=16	=16	=16	=16	=16
!	!	!	!	!	!	!LO:TX:a:t=2.	!
8C/L	6	2r	4r	8A-\	ver-	0r	.
8D-X/J	.	.	.	16G\LL	-bo	.	.
.	.	.	.	16F\JJ	.	.	.
4E-\	.	.	16r	4G\	e-	.	.
.	.	.	16ee-\LL	.	.	.	.
.	.	.	16ee-\	.	.	.	.
.	.	.	16dd-X\JJ	.	.	.	.
4.A-\	.	16r	8cc\L	4A-\	-jus,	.	.
.	.	16cc\LL	.	.	.	.	.
.	.	16cc\	8cc\J	.	.	.	.
.	.	16b-\JJ	.	.	.	.	.
.	.	8a-/L	4r	16r	.	.	.
.	.	.	.	16c\	spe-	.	.
8G\	.	8a-/J	.	16c\	-ra-	.	.
.	.	.	.	16B-\	-vit	.	.
=17	=17	=17	=17	=17	=17	=17	=17
4F\	.	8cc\L	16r	8A-\	a-	.	.
.	.	.	16ff\LL	.	.	.	.
.	.	8cc\J	16ff\	16A-\	-ni-	.	.
.	.	.	16ee-\JJ	16G\	-ma	.	.
!LO:TX:a:t=P:problem=mixed beam	!	!	!	!	!	!	!
8G\L	n	8bn/L	8ddn\L	8F\	me-	.	.
8C/J	.	8g/J	16cc\L	16G\	-a	.	.
.	.	.	16dd\JJ	16A-\	in	.	.
2GG/	4	2g/	4cc\	4E-\	Do-	.	.
.	n	.	4b-\	8.D\	.	.	.
.	.	.	.	16C/	-mi-	.	.
=18	=18	=18	=18	=18	=18	=18	=18
!LO:TX:a:t=P:problem=mixed beam	!	!	!	!	!	!	!
8C/L	.	8g\L	8cc\L	8C/	-no.	8r	.
8c\	.	16ee-\L	16gg\L	16c\	A	16ee-\	A
.	.	16ee-\JJ	16gg\JJ	16c\	cus-	16ee-\	cus-
!LO:TX:a:t=T&colon;	!	!	!	!	!	!	!
8Bn\	.	16dd\LL	16gg\LL	8Bn\	-to-	8dd\	-to-
.	.	16dd\	16gg\	.	.	.	.
8G\J	.	16dd\	16gg\	16G\	-di-	16gg\	-di-
.	.	16dd\JJ	16gg\JJ	16G\	-a	16gg\	-a
!	!	!	!LO:LB:g=original	!	!	!	!
8c\L	.	8ee-\L	8gg\L	8c\	ma-	8ee-\	ma-
8B-X\J	7	8dd\J	8gg\	8B-X\	-tu-	8dd\	-tu-
4A-\	7	4cc\	8gg\	4A-\	-ti-	4cc\	-ti-
.	6	.	8ff\J	.	.	.	.
!LO:LB:g=original	!	!	!	!LO:LB:g=original	!	!	!
=19	=19	=19	=19	=19	=19	=19	=19
4G\	7	4b-/	8ff\L	4G\	-na	4b-\	-na
.	6	.	8ee-\J	.	.	.	.
!	!	!	!	!	!	!LO:TX:b:i:t=Cito vertatur.	!
8F\L	6	8a-/L	8aa-\L	8F\	us-	8a-\	us-
8E-\J	.	8cc/J	8gg\J	16E-\	-(que)	16g\	-(que)
.	.	.	.	16E-\	ad	16g\	ad
4D/	7	8cc\L	4ff\	4D/	noc-	4f/	noc-
.	6|	8bn\J	.	.	.	.	.
!LO:TX:a:t=P:problem=mixed beam	!	!	!	!	!	!	!
8C/L	.	8cc\L	8ee-\L	8C/	-te(m),	8e-/	-te(m)
[8c\J	.	8cc\J	[8ee-\J	[<8c\	spe-	[8ee-\	ʃpe-
!	!	!LO:LB:g=original	!	!	!	!LO:PB:g=original	!
=20	=20	=20	=20	=20	=20	=20	=20
8c\L]	.	8cc\L	8ee-\L]	8c\]	.	8ee-\]	.
8An\	.	8cc\J	8ff\J	8An,\	-ret	16dd\LL	-ret
.	.	.	.	.	.	16cc\JJ	.
!	!	!LO:TX:a:t=P:problem=mixed beam	!	!	!	!	!
8B-\	.	8f/L	8dd\L	8B-\	Is-	8.dd\	Is-
8F#X\J	.	16dd\L	8aan\J	8F#X\	-ra-	.	.
.	.	16cc\JJ	.	.	.	16cc\	-ra-
!LO:TX:a:t=P:problem=mixed beam	!	!	!	!	!	!	!
8G\L	.	8b-/L	8gg\L	8G\	-ël	8b-\	-ël
8C/J	.	8an/J	8ee-\J	8C/	in	16an\LL	in
.	.	.	.	.	.	16g\JJ	.
4D/	4	8.a/L	16dd\LL	8.D/	Do-	8.f#X/	Do-
.	#	.	16cc\	.	.	.	.
.	.	.	16b-\	.	.	.	.
.	.	16g/Jk	16an\JJ	16D/	-mi-	16f#/	-mi-
=21	=21	=21	=21	=21	=21	=21	=21
4GG/	.	4g/	4b-/	4GG/	-no.	8g/	-no.
.	x 7	.	.	.	.	4dd\	Qui-
4E-\	x 6	4r	8r	4r	.	.	.
.	x 5	.	4gg\	.	.	16cc\LL	-a
.	x 9	.	.	.	.	16b-\JJ	.
4F\	n 8	4r	.	2r	.	8an\	a-
.	x 7	.	16ff\LL	.	.	8dd\	-pud
.	.	.	16ee-\JJ	.	.	.	.
4G\	.	8r	8dd\L	.	.	8.b-\	Do-
.	.	[8dd\	[8bb-\J	.	.	.	.
.	.	.	.	.	.	16a\	-mi-
=22	=22	=22	=22	=22	=22	=22	=22
!LO:TX:a:t=P:problem=mixed beam	!	!	!	!LO:TX:a:t=1	!	!	!
8GG/L	.	8dd\L]	8bb-\L]	1r	.	8g\	-nu(m)
8G\	.	16cc\L	16aan\L	.	.	8b-\	mi-
.	.	16b-\JJ	16gg\JJ	.	.	.	.
!	!	!	!LO:TX:a:t=P:problem=powtórzona grupa w następnej linijce	!	!	!	!
8F\	.	8an/L	8aa\L	.	.	8cc\	-se-
8D\J	.	8b-/J	8ff\J	.	.	8dd\	-ri-
!	!	!	!LO:LB:g=original	!	!	!	!
4C/	.	2ccT\	4gg\	.	.	16ee-\LL	-cor-
.	.	.	.	.	.	16dd\	.
.	.	.	.	.	.	16ee-\	.
.	.	.	.	.	.	16ff\JJ	.
.	.	.	.	.	.	8qqff/	.
4F\	7 n	.	8.aant\L	.	.	8.ee-\	.
.	.	.	(32gg\LL	.	.	16dd\	-di-
.	.	.	32aa\JJJ)	.	.	.	.
*	*	*	*	*	*	*custos:dd	*
!	!	!	!	!	!	!LO:LB:g=original	!
=23	=23	=23	=23	=23-zz	=23	=23	=23
4BB-/	.	4b-/	4bb-\	2r	.	8dd,\	-a,
.	.	.	.	.	.	8dd\	et
8E-\L	.	4r	4r	.	.	16g\LL	co-
.	.	.	.	.	.	16b-\JJ	.
8F\J	n	.	.	.	.	16an\LL	-pi-
.	.	.	.	.	.	16cc\JJ	.
!LO:TX:a:t=P:problem=mixed beam	!	!	!	!	!	!	!
8G\L	.	2r	2r	4r	.	16b-\LL	-o-
.	.	.	.	.	.	16dd\JJ	.
8An\	.	.	.	.	.	16cc\LL	-sa
.	.	.	.	.	.	16ee-\JJ	.
8B-\	.	.	.	8r	.	8dd\	a-
8BB-/J	.	.	.	8F\	Et	16cc\LL	-pud
.	.	.	.	.	.	16b-\JJ	.
=24	=24	=24	=24	=24	=24	=24	=24
!LO:TX:a:t=P:problem=mixed beam	!	!	!	!LO:TX:b:i:t=cito vertatur.	!	!	!
8E-\L	.	00r	00r	8G\	i-	8cc\	E-
8C\	.	.	.	8G\	-pse	16g\	-um
.	.	.	.	.	.	16cc\	re-
8F\	.	.	.	8.F\	re-	8.an\	-dem-
8FF/J	.	.	.	.	.	.	.
.	.	.	.	16E-\	-di-	16b-\	-pti-
!LO:LB:g=original	!	!	!	!	!	!	!
!LO:TX:a:t=P:problem=mixed beam	!	!	!	!	!	!	!
8BB-/L	.	.	.	8D\	-met	4b-\	-o.
8G\	.	.	.	4B-\	re-	.	.
8En\	6 5	.	.	.	.	4r	.
8F\J	-	.	.	16A-\	-di-	.	.
!	!	!	!	!LO:LB:g=original	!	!	!
.	.	.	.	16A-\	-met	.	.
=25	=25	=25	=25	=25	=25	=25	=25
!	!	!	!	!	!	!LO:TX:a:t=1.	!
4C/	4	.	.	8.G\	Is-	1r	.
.	n	.	.	16F\	-ra-	.	.
4FF/	.	.	.	8F\	-ël	.	.
.	.	.	.	8c\	ex	.	.
8r	.	.	.	8.A-\	o-	.	.
8F\L	.	.	.	.	.	.	.
.	.	.	.	16G\	-mni-	.	.
8F\	.	.	.	4F\	-bus	.	.
8E-\J	.	.	.	.	.	.	.
=26	=26	=26	=26	=26	=26	=26-zz	=26
8D/L	.	.	.	16r	.	2r	.
.	.	.	.	16A-\	i-	.	.
8C/	.	.	.	16F\	-ni-	.	.
.	.	.	.	16A-\	-qui-	.	.
8BB-/	.	.	.	8D\	-ta-	.	.
8E-/J	.	.	.	16E-\	-ti-	.	.
.	.	.	.	16E-\	-bus	.	.
2BB-/	4	.	.	2BB-/	e-	8r	.
.	3	.	.	.	.	16f/LL	Glo-
.	.	.	.	.	.	16g/JJ	.
.	.	.	.	.	.	8a-\	.
.	.	.	.	.	.	16g\	-ri-
.	.	.	.	.	.	16f\	-a
=27	=27	=27	=27	=27	=27	=27	=27
4E-\	.	.	.	4E-\	-jus.	8g/	Pa-
.	.	.	.	.	.	8e-/	-tri,
!	!	!	!	!	!	!LO:LB:g=original	!
4c\	.	.	.	4r	.	8r	.
.	.	.	.	.	.	16g\LL	Glo-
.	.	.	.	.	.	16an\JJ	.
8G\L	.	.	.	2r	.	8b-\	.
8E-\J	.	.	.	.	.	16an\	-ri-
.	.	.	.	.	.	16g\	-a
4F\	n	.	.	.	.	8.an\	Fi-
.	.	.	.	.	.	16b-\	-li-
=28	=28	=28	=28	=28	=28	=28	=28
!	!	!	!	!LO:TX:a:t=1.	!	!	!
4BB-/	.	1r	1r	1r	.	8b-\	-o,
.	.	.	.	.	.	16dd\	et
.	9	.	.	.	.	16dd\	Spi-
4.C/	8	.	.	.	.	8dd\	-ri-
.	.	.	.	.	.	16cc\	-tu-
.	.	.	.	.	.	16dd\	-i
.	.	.	.	.	.	8ee-\	San-
8D/	#	.	.	.	.	(4dd\	.
4E-\	7	.	.	.	.	.	.
.	6	.	.	.	.	8cc\)	.
=29	=29	=29	=29	=29	=29	=29	=29
4D\	#	4r	4r	4r	.	4dd\	-cto,
8r	.	8r	8r	8r	.	8r	.
8G\	-	8gg\	8ccc\	16G\	Ci-	16dd\	si-
.	.	.	.	16G\	-cut	16dd\	-cut
!LO:TX:a:t=T&colon;	!	!LO:LB:g=original	!	!	!	!	!
8C/L	.	8gg\L	8ccc\L	8C/	e-	8ee-\	e-
*	*	*	*	*custos:D	*	*	*
8C/	.	8gg\	8ccc\	8C/	-rat	16dd\LL	-rat
.	.	.	.	.	.	16cc\JJ	.
!	!	!	!	!LO:LB:g=original	!	!	!
8D/	6	8ff\	8bb-\	8D\	in	8b-\	in
8D/J	.	8ff\J	8bb-\J	8D\	prin-	8a-\	prin-
=30	=30	=30	=30	=30	=30	=30	=30
8E-\L	.	8ee-\L	8bb-\L	8.E-\	-ci-	8.g\	-ci-
*custos:G	*	*	*	*	*	*	*
8F\J	.	8ee-\	8bb-\	.	.	.	.
.	.	.	.	16F\	-pi-	16a-\	-pi-
!LO:LB:g=original	!	!	!	!	!	!LO:LB:g=original	!
8G\L	.	8ee-\	8bb-\	8G\	-o,	8b-,\	-o,
8E-\J	.	8gg\J	8bb-\J	8E-\	et	8b-\	et
8A-\L	.	8ee-\L	8ccc\L	8A-\	nu(n)c,	16cc\LL	nunc
.	.	.	.	.	.	16dd,\JJ	.
8G\J	6	8b-\	8bb-\J	8G\	et	8ee-\	et
4F\	7	8cc\	4aa-X\	4F\	ʃem-	8ee-\L	ʃem-
.	6	8a-\J	.	.	.	8dd\J	.
=31	=31	=31	=31	=31	=31	=31	=31
4E-\	.	4b-/	4gg\	4E-,\	-per,	4ee-\	-per,
8E-\L	.	8b-/L	8gg\L	8E-\	et	8g\	et
8E-\J	.	8b-/J	8gg\J	8E-\	in	8g\	in
!	!	!	!	!LO:N:vis=16	!	!	!
8E-\L	4n 2	8cc\L	8ff\L	8E-\	ʃae-	8an\	ʃae-
8E-\	.	8cc\	8ff\	16E-\	-cu-	16a\	-cu-
.	.	.	.	16E-\	-la	16a\	-la
8D\	6|	8dd\	8ff\	8D\	ʃae-	8bn\	ʃae-
8D\J	.	8dd\J	8ff\J	8D\	-cu-	8b\	-cu-
=32	=32	=32	=32	=32	=32	=32	=32
!LO:TX:a:t=P:problem=mixed beam	!	!	!	!	!	!	!
8C/L	.	8ee-\L	8gg\L	8C/	-lo-	8cc\	-lo-
8C/	.	8ee-\	8gg\	8C,/	-rum,	8cc,\	-rum
*	*	*	*	*	*ij	*	*ij
8G\	n	8gg\	8bbn\	8G\	et	8dd\	et
8G\J	.	8gg\J	8bb\J	8G\	in	8dd\	in
!	!	!	!LO:LB:g=original	!	!	!	!
8c\L	.	8gg\L	8ccc\L	8c\	ʃae-	8ee-\	ʃae-
8c\	.	8gg\	8ccc\	16c\	-cu-	16ee-\	-cu-
.	.	.	.	16c\	-la	16ee-\	-la
8B-\	n	8gg\	8ccc\	8B-\	ʃae-	8een\	ʃae-
8B-\J	4 2	8gg\J	8ccc\J	8B-\	-cu-	8ee\	-cu-
*	*	*	*	*custos:A	*	*	*
!	!	!	!	!LO:LB:g=original	!	!	!
=33	=33	=33	=33	=33	=33	=33	=33
8A-\L	6	8aa-\L	8ccc\L	8A-\	-lo-	8ff\	-lo-
8F\J	.	8aa-\	8ccc\	8A-,\	-rum	8ff\	-rum
*	*	*	*	*	*Xij	*	*Xij
!LO:TX:a:t=P:problem=niewyraźne źródło	!	!	!	!	!	!LO:LB:g=original	!
8BBn/L	6	8dd\	8ddd\	16G\LL	a-	4r	.
.	.	.	.	16F\	.	.	.
8BB/J	.	8gg\J	8ddd\J	16E-\	.	.	.
.	.	.	.	16D\JJ	.	.	.
8C/L	.	8ee-\L	8gg\L	8C/	.	16ee-\LL	A-
.	.	.	.	.	.	16dd\	.
8C/	.	8ee-\	8gg\	8C,/	-men	16cc\	.
.	.	.	.	.	.	16b-\JJ	.
*	*	*	*	*	*ij	*	*
8FF/	.	8cc\	8aa-\	16F\LL	a-	8a-\	.
.	.	.	.	16E-\	.	.	.
8FF/J	.	8cc\J	8aa-\J	16D\	.	8a-\	-men
.	.	.	.	16C\JJ	.	.	.
=34	=34	=34	=34	=34	=34	=34	=34
!LO:TX:a:t=P:problem=mixed beam	!	!	!	!	!	!	!
8GG/L	n	8bn/L	8gg\L	8BBn/	.	16dd\LL	a-
.	.	.	.	.	.	16cc\	.
8G\	.	16cc/L	16aan\L	8GG,/	-men	16bn\	.
.	.	16dd/JJ	16bb-\JJ	.	.	16a-\JJ	.
8E-\	6	8ee-\L	8ccc\L	8E-\	a-	8g\	-men
!LO:LB:g=original	!	!	!	!	!	!	!
8F\J	.	8dd\J	8ccc\J	8F\	-men	8cc,\	.
*	*	*	*	*	*Xij	*	*
!LO:LB:g=original	!	!	!	!	!	!	!
4G\	6 4	4ee-\	4ccc\	4G\	a-	(4cc\	a-
4GG/	5 n	4dd\	4bbn\	4GG/	.	4bn\)	.
=35	=35	=35	=35	=35	=35	=35	=35
1C	n	1cc	1ccc	1C	-men	1cc	-men
==;;	==;;	==;;	==	==;;	==	==;;	==
*-	*-	*-	*-	*-	*-	*-	*-
!!!system-decoration: [(g1)][(g2)][(g3)]
!!!RDF**kern: >= above
!!!RDF**kern: <= below
!!!ENC: Anna Matuszewska
!!!END: 2020-12-31
!!!ENC: Anastazja Marusiak
!!!END: 2020-07-02
